icons/outline/sunset-2.svg

<!--
category: Weather
tags: [east, horizon, landscape, morning]
version: "1.73"
unicode: "f23a"
-->
<svg
  xmlns="http://www.w3.org/2000/svg"
  width="24"
  height="24"
  viewBox="0 0 24 24"
  fill="none"
  stroke="currentColor"
  stroke-width="2"
  stroke-linecap="round"
  stroke-linejoin="round"
>
  <path d="M3 13h1m16 0h1m-15.4 -6.4l.7 .7m12.1 -.7l-.7 .7m-9.7 5.7a4 4 0 1 1 8 0m-13 4h18m-14 3h5m4 0h1m-5 -15v-1" />
</svg>

<!--
category: Weather
tags: [east, horizon, landscape, morning]
version: "1.73"
unicode: "f23a"
-->
<svg
  xmlns="http://www.w3.org/2000/svg"
  width="24"
  height="24"
  viewBox="0 0 24 24"
  fill="none"
  stroke="currentColor"
  stroke-width="2"
  stroke-linecap="round"
  stroke-linejoin="round"
>
    <path d="M3 13h1M20 13h1M5.6 6.6l.7 .7M18.4 6.6l-.7 .7M8 13a4 4 0 1 1 8 0M3 17h18M7 20h5M16 20h1M12 5v-1" />
</svg>
